!!!OTL: 798. Maikaefer, flieg'! / Andere Melodie.
!!!ARE: Europa, Mitteleuropa, Deutschland, Thueringen; Vogtland
!!!SCT: K0798A
!!!TXL: @@DE
!!!YEM: Copyright 1995, estate of Helmut Schaffrath.
**kern	**text
*clefG2	*
*M2/4	*
*k[f#]	*
*G:	*
=1	=1
{4dd	Mai-
8b	-kä-
8a	-fer,
=2	=2
4g	flieg'!
8r}	.
{8d	dein
=3	=3
8.g	Va-
16a	-ter
8b	iſt
8cc	im
=4	=4
4dd	Krieg',
8r}	.
{8dd	dein'
=5	=5
8b	Mutter
8dd	.
8ee	iſt
8dd	in
=6	=6
8dd	Pom-
8cc	-mer-
4cc}	-land,
=7	=7
{8cc	Pom-
8b	-mer-
8a	-land
8cc	iſt
=8	=8
8ee	ab-
8dd	-ge-
4b}	-brannt.
=9	=9
{4dd	Mai-
8b/	-kö-
8a	-fer
=10	=10
4g	flieg'!
4r}	.
==	==
!!!AGN: Kinder -, Tier - Lied
!!!ONB: ESAC (Essen Associative Code) Database: KINDER
!!!AMT: simple duple
!!!AIN: vox
!!!EED: Helmut Schaffrath
!!!EEV: 1.0
!!Wiesbaden und Umgegend.
!!!GTL: VI. Das Kind im Verkehr mit der Natur. A. Verkehr mit der Thierwelt. (Grussliedchen an die Thiere.)
!!@@COMMENT:"Der Maikäfer heißt auch Kritʒekrebs, Weidenkäfer (Weidenhahn), im Osnabrückiſchen: 
!!Heckenkäfer, Eckenwebel und Eckernſcherfel. Jn Ʒürich: Laubkäfer."
!!@@END:
!!!URL-scan: https://archive.org/details/DeutschesKinderliedUndKinderspiel/page/165/mode/1up
!!!ENC: Anna Maria Matuszewska
!!!EEV: 2024/30/08
*-	*-
